svg/package-16.svg

<svg xmlns="http://www.w3.org/2000/svg" width="16" height="16" fill="none" viewBox="0 0 16 16"><path stroke="currentColor" stroke-linecap="round" stroke-linejoin="round" d="M5.5 2.5v-2m5 2v-2m5 10h-2m2-5h-2m-11 5h-2m2-5h-2m5 10v-2m5 2v-2m1.9-11H3.6a1.1 1.1 0 0 0-1.1 1.1v8.8a1.1 1.1 0 0 0 1.1 1.1h8.8a1.1 1.1 0 0 0 1.1-1.1V3.6a1.1 1.1 0 0 0-1.1-1.1Z"/><path stroke="currentColor" stroke-linecap="round" stroke-linejoin="round" d="M10.5 5.5h-5v5h5v-5Z"/></svg>

<svg xmlns="http://www.w3.org/2000/svg" width="16" height="16" fill="none" viewBox="0 0 16 16"><path stroke="currentColor" stroke-linecap="round" stroke-linejoin="round" d="M5.5 2.5v-2M10.5 2.5v-2M15.5 10.5h-2M15.5 5.5h-2M2.5 10.5h-2M2.5 5.5h-2M5.5 15.5v-2M10.5 15.5v-2M12.4 2.5H3.6a1.1 1.1 0 0 0-1.1 1.1v8.8a1.1 1.1 0 0 0 1.1 1.1h8.8a1.1 1.1 0 0 0 1.1-1.1V3.6a1.1 1.1 0 0 0-1.1-1.1Z"/><path stroke="currentColor" stroke-linecap="round" stroke-linejoin="round" d="M10.5 5.5h-5v5h5v-5Z"/></svg>
